!! 00000] TT[WS
!!!OTL: Jiangjieshi zuie ge
!!!ARE: Asia, China, Shanxi Hejin
!! Ethnic Group: Han
!! WI, 304
!!!SCT: J0368
!!!YEM: Copyright 1995, estate of Helmut Schaffrath.
**kern
*ICvox
*Ivox
*M2/4
*k[b-]
*F:
{8cc
16dd
16cc
8b-
8g
=1
8cc
16dd
16cc
8b-
8g
=2
8cc
16dd
16cc
16b-
16cc
16b-
16g
=3
16f
16g
8cc
4g}
=4
{8cc
16dd
16cc
16b-
16cc
16b-
16g
=5
16f
16g
8cc
16g
16a
16g
16f
=6
8d
16g
16g
8f
16e
16d
=7
8.c
16f
4c}
=8
{16g
16b-
16g
16f
16g
16b-
16g
16f
=9
8.dd
16g
8f
16e
16d
=10
8.c
16f
4c}
==
!!!AGN: Xiaodiao. Xinminge, Xuanchuan
!! Neue Text. Politische Liede
!!!ONB: ESAC (Essen Associative Code) Database: CHINA
!!!AMT: simple duple
!!!AIN: vox
!!!EED: Helmut Schaffrath
!!!EEV: 1.0
*-
